X:1
T:Title
%%score 1 { 2 | 3 }
L:1/8
Q:1/4=111
M:4/4
K:D
V:1 treble nm="Grand Piano, Staff 1"
V:2 bass nm="Choir Pad, Buckland, 77.77"
V:3 bass 
V:1
 [FA]2 [DF]2 [CE]2 D2 | [DE]2 [CE]2 [DF]4 | [DA]2 [Dd]2 [Ec]2 [FA]2 | [EA]2 [E^G]2 [EA]4 | %4
w: By~Leighton~George~Hayne,~1863 * * *||||
 [Fd]2 [EA]2 [DG]2 [DF]2 | [B,E]2 [^DF]2 [EG]4 | [DG]2 [EA]2 [DF]2 D2 | [B,D]2 [A,C]2 [A,D]4- | %8
w: ||||
 [A,D]4 z4 |] %9
w: |
V:2
 A,2 A,2 G,2 F,2 | B,2 A,2 A,4 | F,2 ^G,2 A,2[K:treble] D2 | C2 B,2 C4 | A,2[K:bass] E,F, G,2 A,2 | %5
 B,2 B,2 B,4 | B,2 A,2 A,2 A,2 | G,2 E,2 F,4- | F,4 z4 |] %9
V:3
 D,2 D,2 A,,2 B,,2 | G,,2 A,,2 D,4 | D,2 B,,2 C,2 D,2 | E,2 E,2 A,4 | D,2 C,2 B,,2 A,,2 | %5
 G,,2 B,,2 E,4 | B,,2 C,2 D,2 F,,2 | G,,2 A,,2 D,4- | D,4 z4 |] %9

